component-icons/svg/arcgauge.svg

<svg id="Layer_1" data-name="Layer 1" xmlns="http://www.w3.org/2000/svg" viewBox="0 0 24 24">
  <defs>
    <style>
      .cls-1 {
        fill: gray;
      }
    </style>
  </defs>
  <title>arcgauge</title>
  <path class="cls-1" d="M6,13h2.8L7,19H9l2-6V11H6Zm8-2-2,2v4l2,2h2l2-2V13l-2-2Zm2,6H14V13h2ZM12,5A12,12,0,0,0,0,17a13.28,13.28,0,0,0,.18,2l1.94-.55A9.89,9.89,0,0,1,2,17a10,10,0,0,1,18-6l1.43-1.43A12,12,0,0,0,12,5Zm10.55,6.28-1.5,1.49a9.64,9.64,0,0,1,.83,5.69l1.94.54A13.16,13.16,0,0,0,24,17,12,12,0,0,0,22.55,11.28Z"/>
</svg>

<?xml version="1.0" encoding="utf-8"?>
<!-- Generator: Adobe Illustrator 24.2.3, SVG Export Plug-In . SVG Version: 6.00 Build 0)  -->
<svg version="1.1" id="Layer_1" xmlns="http://www.w3.org/2000/svg" xmlns:xlink="http://www.w3.org/1999/xlink" x="0px" y="0px"
	 width="24px" height="24px" viewBox="0 0 24 24" enable-background="new 0 0 24 24" xml:space="preserve">
<path d="M6,13h2.8L7,19h2l2-6v-2H6V13z M14,11l-2,2v4l2,2h2l2-2v-4l-2-2H14z M16,17h-2v-4h2V17z M12,5C5.4,5,0,10.4,0,17
	c0,0.7,0.1,1.3,0.2,2l1.9-0.5C2,18,2,17.5,2,17C2,11.5,6.5,7,12,7c3.1,0,6.1,1.5,8,4l1.4-1.4C19.2,6.7,15.7,5,12,5z M22.5,11.3
	L21,12.8c0.8,1.8,1.1,3.8,0.8,5.7l1.9,0.5c0.1-0.7,0.2-1.3,0.2-2C24,15,23.5,13,22.5,11.3z"/>
</svg>
